X:1
T: Glenora Falls
C:
R:Jig
Q:180
K:C
M:6/8
L:1/16
|:E6 c6|e2a2f2 e2c2A2|E6 c6|d2c2d2 B2A2F2|
E6 c6|a2g2a2 f2e2c2|d2c2d2 E2F2G2|1A2c2B2 A2G2F2:|2A2B2A2 A2c2e2|
|:a6 g2b2g2|f2a2f2 e2c2A2|B4c2 d4e2|f2g2a2 e2f2g2|
a6 g2b2g2|f2a2f2 e2c2A2|d2e2f2 e2c2A2|1E2G2B2 A2c2e2:|2E2F2G2 A6||
